X:1
T:Dolgelly, 66.66.88
T:Dolgelly, 66.66.88
T:Welsh hymn melody
T:Public Domain Courtesy of the Cyber Hymnal™
C:Welsh hymn melody
Z:Public Domain
Z:Courtesy of the Cyber Hymnal™
%%score ( 1 2 ) ( 3 4 )
L:1/8
Q:1/4=115
M:4/4
K:F
V:1 treble 
V:2 treble 
V:3 bass 
V:4 bass 
V:1
 D4 | [DA]2 [DG]2 [DF]2 [^CE]2 | D4 [DA]4 | [Ec]2 [D=B]2 [CA]2 [=B,^G]2 | [^CA]4 [CA]4 | %5
 [DA]2 [DG]2 [^CA]2 [DF]2 | [^CE]4 D4 | [A,F]2 [DG]2 [DF]2 [^CE]2 x | D4 [DF]4 | %9
 [Ec]2 [FA]2 [Fd]2 [FA]2 | [Ec]2 =B2 [CA]4 | [CA]4 [Fd]2 [DA]2 | [DG]2 [DA]2 [DF]2 [^CE]2 x | D4 |] %14
V:2
 D4 | x8 | D4 x4 | x8 | x8 | x8 | x4 D4 | x9 | D4 x4 | x8 | x2 (ED) x4 | x8 | x9 | D4 |] %14
V:3
 [D,F,]4 | [D,F,]2 [G,,B,]2 [A,,A,]2 [A,,G,]2 | [D,F,]4 [D,F,]4 | [C,G,]2 [D,F,]2 E,2 E,2 | %4
 [A,,E,]4 [A,,E,]4 | [D,F,]2 [B,,G,]2 [A,,E,]2 [D,F,]2 | [A,,A,]4 [B,,F,]4 | %7
 [D,F,]2 [G,,B,]2 A,3 z G, | [D,F,]4 [D,F,]4 | [C,G,]2 [F,A,]2 [D,A,]2 [D,F,]2 | %10
 [C,A,]2 [E,^G,]2 A,4 | [F,A,]4 [D,A,]2 [D,F,]2 | [B,,G,]2 [F,,D,]2 A,3 z G, | [D,F,]4 |] %14
V:4
 x4 | x8 | x8 | x4 E,2 E,2 | x8 | x8 | x8 | x4 A,,2 A,,2 x | x8 | x8 | x4 A,4 | x8 | %12
 x4 A,,2 A,,2 x | x4 |] %14

